Newaita/actions/32/list-add-user.svg

<?xml version="1.0" encoding="UTF-8"?>
<svg xmlns="http://www.w3.org/2000/svg" xmlns:xlink="http://www.w3.org/1999/xlink" width="32pt" height="32pt" viewBox="0 0 32 32" version="1.1">
<g id="surface1">
<path style=" stroke:none;fill-rule:nonzero;fill:rgb(25.882354%,25.882354%,25.882354%);fill-opacity:1;" d="M 11.183594 15.285156 C 8.597656 16.226562 6.160156 18.183594 5.46875 20.949219 C 5.167969 22.269531 5.335938 23.628906 5.292969 24.96875 C 5.304688 26.277344 5.265625 27.585938 5.3125 28.894531 C 5.445312 29.664062 6.273438 29.730469 6.898438 29.683594 L 17.199219 29.683594 L 17.199219 27.699219 L 7.277344 27.699219 C 7.289062 25.808594 7.253906 23.914062 7.292969 22.023438 C 7.496094 19.886719 9.246094 18.289062 11.101562 17.449219 C 11.71875 17.636719 12.898438 17.929688 13.230469 18.109375 L 14.058594 16.289062 C 13.058594 16.105469 12.082031 15.765625 11.183594 15.285156 Z M 20.601562 15.328125 C 20.476562 15.324219 20.351562 15.359375 20.230469 15.457031 C 19.429688 15.847656 18.570312 16.128906 17.691406 16.289062 L 18.484375 18.15625 C 19.515625 17.78125 20.109375 17.425781 20.863281 17.550781 C 22.136719 18.15625 23.34375 19.160156 23.988281 20.425781 L 26.132812 20.425781 C 25.425781 18.367188 23.671875 16.726562 21.730469 15.785156 C 21.367188 15.679688 20.976562 15.335938 20.601562 15.328125 Z M 20.601562 15.328125 "/>
<path style=" stroke:none;fill-rule:nonzero;fill:rgb(25.882354%,25.882354%,25.882354%);fill-opacity:1;" d="M 15.875 1.503906 C 12.210938 1.503906 9.261719 4.457031 9.261719 8.121094 C 9.261719 11.785156 12.210938 14.734375 15.875 14.734375 C 19.542969 14.734375 22.492188 11.785156 22.492188 8.121094 C 22.492188 4.457031 19.542969 1.503906 15.875 1.503906 Z M 15.875 3.558594 C 18.441406 3.558594 20.507812 5.621094 20.507812 8.1875 C 20.507812 10.753906 18.441406 12.820312 15.875 12.820312 C 13.3125 12.820312 11.246094 10.753906 11.246094 8.1875 C 11.246094 5.621094 13.3125 3.558594 15.875 3.558594 Z M 15.875 3.558594 "/>
<path style=" stroke:none;fill-rule:nonzero;fill:rgb(14.901961%,65.098041%,60.392159%);fill-opacity:1;" d="M 15.875 16.398438 C 15.460938 16.378906 15.148438 16.671875 14.886719 16.957031 C 14.441406 17.371094 14.492188 18.144531 14.964844 18.519531 C 15.105469 18.660156 15.242188 18.816406 15.429688 18.898438 C 15.023438 19.894531 14.953125 20.984375 14.898438 22.046875 C 14.863281 23.453125 14.90625 24.890625 15.300781 26.25 C 15.421875 26.546875 15.535156 27.035156 15.925781 27.035156 C 16.28125 26.886719 16.371094 26.457031 16.488281 26.125 C 16.878906 24.65625 16.910156 23.113281 16.832031 21.601562 C 16.761719 20.6875 16.679688 19.753906 16.324219 18.898438 C 16.597656 18.757812 16.804688 18.511719 17.003906 18.277344 C 17.3125 17.835938 17.1875 17.195312 16.773438 16.863281 C 16.542969 16.601562 16.242188 16.386719 15.875 16.398438 Z M 15.875 16.398438 "/>
<path style=" stroke:none;fill-rule:nonzero;fill:rgb(14.901961%,65.098041%,60.392159%);fill-opacity:1;" d="M 18.851562 24.394531 L 25.46875 24.394531 C 26.015625 24.394531 26.460938 24.800781 26.460938 25.300781 L 26.460938 25.472656 C 26.460938 25.972656 26.015625 26.378906 25.46875 26.378906 L 18.851562 26.378906 C 18.304688 26.378906 17.859375 25.972656 17.859375 25.472656 L 17.859375 25.300781 C 17.859375 24.800781 18.304688 24.394531 18.851562 24.394531 Z M 18.851562 24.394531 "/>
<path style=" stroke:none;fill-rule:nonzero;fill:rgb(14.901961%,65.098041%,60.392159%);fill-opacity:1;" d="M 23.152344 22.082031 L 23.152344 28.695312 C 23.152344 29.242188 22.746094 29.6875 22.246094 29.6875 L 22.074219 29.6875 C 21.574219 29.6875 21.167969 29.242188 21.167969 28.695312 L 21.167969 22.082031 C 21.167969 21.53125 21.574219 21.089844 22.074219 21.089844 L 22.246094 21.089844 C 22.746094 21.089844 23.152344 21.53125 23.152344 22.082031 Z M 23.152344 22.082031 "/>
</g>
</svg>

<svg xmlns="http://www.w3.org/2000/svg" width="32pt" height="32pt" viewBox="0 0 32 32"><path d="M11.184 15.285c-2.586.942-5.024 2.899-5.715 5.664-.301 1.32-.133 2.68-.176 4.02.012 1.308-.027 2.617.02 3.926.132.77.96.835 1.585.789H17.2v-1.985H7.277c.012-1.89-.023-3.785.016-5.676.203-2.136 1.953-3.734 3.809-4.574.617.188 1.796.48 2.128.66l.829-1.82a9.91 9.91 0 0 1-2.875-1.004zm9.418.043a.546.546 0 0 0-.372.129c-.8.39-1.66.672-2.539.832l.793 1.867c1.032-.375 1.625-.73 2.38-.605 1.273.605 2.48 1.61 3.124 2.875h2.145c-.707-2.059-2.461-3.7-4.403-4.64-.363-.106-.753-.45-1.128-.458zm0 0M15.875 1.504A6.602 6.602 0 0 0 9.262 8.12a6.598 6.598 0 0 0 6.613 6.613 6.6 6.6 0 0 0 6.617-6.613 6.603 6.603 0 0 0-6.617-6.617zm0 2.055a4.62 4.62 0 0 1 4.633 4.628 4.623 4.623 0 0 1-4.633 4.633 4.622 4.622 0 0 1-4.629-4.633 4.619 4.619 0 0 1 4.629-4.628zm0 0" fill="#424242"/><path d="M15.875 16.398c-.414-.02-.727.274-.988.559-.446.414-.395 1.188.078 1.563.14.14.277.296.465.378-.407.997-.477 2.086-.532 3.149-.035 1.406.008 2.844.403 4.203.12.297.234.785.625.785.355-.148.445-.578.562-.91.39-1.469.422-3.012.344-4.523-.07-.915-.152-1.848-.508-2.704.274-.14.48-.386.68-.62.308-.442.183-1.083-.23-1.415-.231-.261-.532-.476-.899-.465zm0 0M18.852 24.395h6.617c.547 0 .992.406.992.906v.172c0 .5-.445.906-.992.906h-6.617c-.547 0-.993-.406-.993-.906V25.3c0-.5.446-.906.993-.906zm0 0" fill="#26a69a"/><path d="M23.152 22.082v6.613c0 .547-.406.992-.906.992h-.172c-.5 0-.906-.445-.906-.992v-6.613c0-.55.406-.992.906-.992h.172c.5 0 .906.441.906.992zm0 0" fill="#26a69a"/></svg>
